build/redact/ColumnsOutline.svg

<svg xmlns="http://www.w3.org/2000/svg" fill="none" viewBox="0 0 24 24" focusable="false"><path d="M0 0H24V24H0z"/><path fill="#74767B" fill-rule="evenodd" d="M4.89989 6C4.54097 6 4.25 6.29346 4.25 6.65546C4.25 7.01746 4.54097 7.31092 4.89989 7.31092L9.93509 7.31092C10.294 7.31092 10.585 7.01746 10.585 6.65546C10.585 6.29346 10.294 6 9.93509 6L4.89989 6ZM14.0541 6C13.6945 6 13.403 6.29336 13.403 6.65524C13.403 7.01712 13.6945 7.31048 14.0541 7.31048L19.0989 7.31048C19.4585 7.31048 19.75 7.01712 19.75 6.65524C19.75 6.29336 19.4585 6 19.0989 6L14.0541 6ZM13.403 11.998C13.403 11.6361 13.6945 11.3427 14.0541 11.3427L19.0989 11.3427C19.4585 11.3427 19.75 11.6361 19.75 11.998C19.75 12.3599 19.4585 12.6532 19.0989 12.6532L14.0541 12.6532C13.6945 12.6532 13.403 12.3599 13.403 11.998ZM4.89989 11.3445C4.54097 11.3445 4.25 11.638 4.25 12C4.25 12.362 4.54097 12.6555 4.89989 12.6555L9.93509 12.6555C10.294 12.6555 10.585 12.362 10.585 12C10.585 11.638 10.294 11.3445 9.93509 11.3445L4.89989 11.3445ZM13.4032 17.3407C13.4032 16.9789 13.6947 16.6855 14.0543 16.6855L19.0989 16.6855C19.4585 16.6855 19.75 16.9789 19.75 17.3407C19.75 17.7026 19.4585 17.996 19.0989 17.996L14.0543 17.996C13.6947 17.996 13.4032 17.7026 13.4032 17.3407ZM4.90009 16.6891C4.54116 16.6891 4.2502 16.9825 4.2502 17.3445C4.2502 17.7065 4.54116 18 4.90009 18L9.93509 18C10.294 18 10.585 17.7065 10.585 17.3445C10.585 16.9825 10.294 16.6891 9.93509 16.6891L4.90009 16.6891Z"/></svg>

<svg xmlns="http://www.w3.org/2000/svg" fill="none" viewBox="0 0 24 24" focusable="false"><path fill="#74767B" fill-rule="evenodd" d="M4.89 6c-.35 0-.64.29-.64.65s.29.66.64.66h5.04c.36 0 .65-.3.65-.66S10.29 6 9.93 6zm9.16 0c-.36 0-.65.29-.65.65s.29.66.65.66h5.04c.36 0 .66-.3.66-.66s-.3-.65-.66-.65zm-.65 5.99c0-.36.29-.65.65-.65h5.04c.36 0 .66.29.66.65s-.3.66-.66.66h-5.04c-.36 0-.65-.3-.65-.66m-8.51-.65c-.35 0-.64.29-.64.66 0 .36.29.65.64.65h5.04c.36 0 .65-.29.65-.65a.65.65 0 0 0-.65-.66zm8.51 6c0-.37.29-.66.65-.66h5.04c.36 0 .66.29.66.66 0 .36-.3.65-.66.65h-5.04c-.36 0-.65-.29-.65-.65m-8.5-.66c-.36 0-.65.3-.65.66s.29.66.65.66h5.03c.36 0 .65-.3.65-.66s-.29-.66-.65-.66z"/></svg>
